docs/images/icons/mail.svg

<svg width="25" height="17.5" fill="none" xmlns="http://www.w3.org/2000/svg"><path d="M1.87 0c-.37 0-.71.1-1 .28l10.71 9.31c.56.5 1.25.5 1.81 0L24.12.28a1.88 1.88 0 0 0-1-.28H1.87ZM.1 1.26c-.06.2-.1.4-.1.61v13.75c0 1.04.83 1.88 1.87 1.88h21.25c1.04 0 1.88-.84 1.88-1.88V1.87c0-.21-.05-.41-.11-.61l-10.68 9.27c-.99.87-2.46.87-3.45 0L.1 1.26Z" fill="#3742F3"/></svg>

<svg width="25.000000" height="17.500000" viewBox="0 0 25 17.5" fill="none" xmlns="http://www.w3.org/2000/svg" xmlns:xlink="http://www.w3.org/1999/xlink">
	<desc>
			Created with Pixso.
	</desc>
	<defs/>
	<path id="Vector" d="M1.87 0C1.5 0 1.16 0.1 0.87 0.28L11.58 9.59C12.14 10.09 12.83 10.09 13.39 9.59L24.12 0.28C23.83 0.1 23.49 0 23.12 0L1.87 0ZM0.1 1.26C0.04 1.46 0 1.66 0 1.87L0 15.62C0 16.66 0.83 17.5 1.87 17.5L23.12 17.5C24.16 17.5 25 16.66 25 15.62L25 1.87C25 1.66 24.95 1.46 24.89 1.26L14.21 10.53C13.22 11.4 11.75 11.4 10.76 10.53L0.1 1.26Z" fill="#3742F3" fill-opacity="1.000000" fill-rule="nonzero"/>
</svg>
